!!!COM:	Johannes Ockeghem
!!!CDT:	~1425-1497/02/06
!!!OPR:	Missa L'homme arm&eacute;
!!!ONM:	3
!!!OTL:	Credo
!!!AGN:	Mass; Credo
!!!SCT:	Ock1008c
!!!SCA:	Ock1008c
!!!voices:	4
!!!voices-OPR:	4
**kern	**kern	**kern	**kern
*staff4	*staff3	*staff2	*staff1
*vox	*vox	*vox	*vox
*I"Tenor	*I"Bassus	*I"Altus	*I"Superius
*I'T	*I'B	*I'A	*I'S
*clefF4	*clefGv2	*clefGv2	*clefG2
*k[]	*k[]	*k[]	*k[]
*>[A,B,C]	*>[A,B,C]	*>[A,B,C]	*>[A,B,C]
*>A	*>A	*>A	*>A
*M3/1	*M3/1	*M3/1	*M3/1
*met(C.)	*met(O)	*met(O)	*met(O)
!!primary-mensuration: met(O)
*rscale:1/2	*	*	*
!LO:TX:Z=10:t=Descendendo in dyapente	!	!	!
=1-	=1-	=1-	=1-
!!section: Patrem
!!!OMD: Patrem
0.r	0G	0d	0g
.	1G	1d	1g
=2-	=2	=2	=2
0C	1.c	1e	1a
.	.	2c\	1g
.	4B\	2d\	.
.	4A/	.	.
1C	1G	1e	[1cc
=3-	=3	=3	=3
0F	1F	1.f	2cc\]
.	.	.	1dd
.	1r	.	.
.	.	2e\	2cc\
1F	1A	2.c\	2.a/
.	.	4d\	4g/
=4	=4	=4	=4
1E	1c	1e	1g
0D	0d	2A/	2.f/
.	.	1B	.
.	.	.	4e/
.	.	.	2f/
.	.	2A/	[2a/
=5-	=5	=5	=5
!!linebreak:original
!LO:N:vis=0.	!	!	!
[y0.C	1.e	0c	2a/]
.	.	.	2g/
.	.	.	1e
.	1g	.	.
.	.	1r	2e/
.	[2c\	.	[2g/
=6-	=6	=6	=6
0.C]yy	2c\]	0e	2g/]
.	2A/	.	1c
.	2G/	.	.
.	2.c\	.	2A/
.	.	1g	2G/
.	4d\	.	.
.	2e\	.	2c/
=7	=7	=7	=7
0.r	2d\	2f\	2d/
.	2G/	2g\	1e
.	2A/	2c\	.
.	1c	2A/	2c/
.	.	1G	1d
.	2B\	.	.
=8-	=8	=8	=8
0.r	0c	[0.g	1c
.	.	.	1r
.	[1e	.	1cc
=9-	=9	=9	=9
0.r	1e]	1g]	1cc
.	0d	0f	1.dd
.	.	.	2b\
=10	=10	=10	=10
!!linebreak:original
0.r	1.G	0g	2.b\
.	.	.	4cc\
.	.	.	2dd\
.	2E/	.	2ee\
.	1F	1a	2cc\
.	.	.	2ff\
=11-	=11	=11	=11
0.r	1G	1g	2ee\
.	.	.	1dd
.	1A	2f\	.
.	.	2e\	2cc\
.	1G	1g	2b\
.	.	.	[2g/
=12-	=12	=12	=12
0.r	2.c\	1e	2g/]
.	.	.	1cc
.	4d\	.	.
.	2e\	2c\	.
.	1d	2G/	2b\
.	.	1B	1dd
.	[2g\	.	.
=13	=13	=13	=13
1r	2g\]	2c\	2ee\
.	2f\	2d\	1dd
1G	2g\	2G/	.
.	2e\	1g	2cc\
1G	1d	.	2.b\
.	.	[2g\	.
.	.	.	4a/
=14-	=14	=14	=14
1C	1.c	4g\]	0cc
.	.	4e\	.
.	.	1a	.
1r	.	.	.
.	4B\	4g\	.
.	4A/	4f\	.
1r	1G	2.e\	1r
.	.	4d\	.
=15-	=15	=15	=15
!!pagebreak:original
0.r	1F	2f\	1cc
.	.	1a	.
.	1r	.	2cc\
.	.	2f\	4b\
.	.	.	4a/
.	1c	1e	1g
=16	=16	=16	=16
0.r	1.d	2d\	1f
.	.	1a	.
.	.	.	1r
.	2B\	2g\	.
.	1A	2f\	1cc
.	.	[2a\	.
=17-	=17	=17	=17
0.r	2F/	2a\]	1dd
.	1G	2g\	.
.	.	1e	2b\
.	2E/	.	2g/
.	2D/	[1f	1a
.	[2F/	.	.
=18-	=18	=18	=18
0.r	2F/]	2f\]	2cc\
.	2G/	2e\	2.b-\
.	2.B-i\	1d	.
.	.	.	8a/L
.	.	.	8g/J
.	.	.	1f
.	8A/L	.	.
.	8B-i/J	.	.
.	2A/	2c\	.
.	[2d\	2B-i\	2f/
=19	=19	=19	=19
0.r	2d\]	2G/	2.b-i\
.	2G/	0d	.
.	.	.	8a/L
.	.	.	8b-i/J
.	2F/	.	4a/
.	.	.	4g/
.	2G/	.	1g
.	1A	.	.
.	.	2c\	2f#i/
=20-	=20	=20	=20
!!linebreak:original
1r	0G	0d	0.g
1r	.	.	.
1G	1r	2.B\	.
.	.	4c\	.
=21-	=21	=21	=21
1G	2r	2d\	0.r
.	1C	1e	.
0G	.	.	.
.	1G	2d\	.
.	.	2B\	.
.	2B\	[2d\	.
=22	=22	=22	=22
0.F	1A	4d\]	0.r
.	.	4c\	.
.	.	2A/	.
.	2c\	2A/	.
.	2d\	2B\	.
.	2A/	2c\	.
.	2D/	2d\	.
=23-	=23	=23	=23
1E	2E/	2G/	0.r
.	1G	2c\	.
0D	.	2d\	.
.	2F/	1B	.
.	2.F/	.	.
.	.	4A/	.
.	4E/	4B\	.
=24-	=24	=24	=24
0.C	[0.G	0c	1e
.	.	.	2e/
.	.	.	2e/
.	.	1r	1e
=25	=25	=25	=25
!!linebreak:original
0.r	0G]	0B	1.d
.	.	.	1g
.	1C	1c	.
.	.	.	2e/
=26-	=26	=26	=26
0.r	1G	1B	2d/
.	.	.	1g
.	2E/	2G/	.
.	1D	2A/	2f/
.	.	1B	1d
.	[2G/	.	.
=27-	=27	=27	=27
0.r	4G/]	1G	1e
.	4C/	.	.
.	2G/	.	.
.	2A/	2c\	1r
.	1G	2B\	.
.	.	1A	2d/
.	2F/	.	2f/
=28	=28	=28	=28
1G	2.G/	1G	2e/
.	.	.	1g
.	4A/	.	.
1G	2B\	1r	.
.	2c\	.	2e/
1G	2d\	1r	1d
.	2B\	.	.
=29-	=29	=29	=29
!LP:N:vis=0.	!	!	!
[y0.C	1.c	0.g	1e
.	.	.	1c
.	2G/	.	.
.	2.c\	.	1r
.	4d\	.	.
=30-	=30	=30	=30
!!linebreak:original
0.C]yy	1e	0c	1g
.	2c\	.	2a/
.	2B\	.	2g/
.	1A	2.e\	2.cc\
.	.	4f\	4dd\
=31	=31	=31	=31
0.r	2G/	1g	1ee
.	1c	.	.
.	.	2e\	2cc\
.	1d	1f	2b\
.	.	.	1a
.	2c\	2e\	.
=32-	=32	=32	=32
0.r	2B\	2d\	2g/
.	2A/	2c\	1cc
.	1r	1f	.
.	.	.	2dd\
.	1r	2g\	1ee
.	.	2a\	.
=33-	=33	=33	=33
0.r	0.r	2g\	2b\
.	.	2e\	2cc\
.	.	2f\	1a
.	.	2d\	.
.	.	2r	1g
.	.	[2g\	.
=34	=34	=34	=34
0.r	0.r	2g\]	2e/
.	.	2.e\	2c/
.	.	.	1g
.	.	4c\	.
.	.	2c\	.
.	.	2G/	2b\
.	.	[2c\	2a/
=35-	=35	=35	=35
!!pagebreak:original
0.r	1r	4c\]	1cc
.	.	4d\	.
.	.	4e\	.
.	.	4f\	.
.	1r	0g	2b\
.	.	.	2.ee\
.	1c	.	.
.	.	.	4dd\
.	.	.	[2ee\
=36-	=36	=36	=36
0.r	2A/	2c\	2ee\]
.	1B	1f	1dd
.	2c\	2e\	1cc
.	1G	1d	.
.	.	.	2b\
=37	=37	=37	=37
0c	1r	0e	1cc
.	0A	.	1r
1c	.	1e	1cc
=38-	=38	=38	=38
0B	1.G	1g	1dd
.	.	1g	1dd
.	2E/	.	.
1B	1D	1f	1dd
=39-	=39	=39	=39
0c	1C	1e	1.ee
.	1r	[0g	.
.	.	.	2dd\
1c	1c	.	1cc
=40	=40	=40	=40
!!linebreak:original
0G	1.d	0g]	0b
.	2B\	.	.
1r	1c	1e	1g
=41-	=41	=41	=41
0c	1F	1.f	1.a
.	1F	.	.
.	.	4e\	2g/
.	.	4d\	.
1c	1A	1c	1e
=42-	=42	=42	=42
0B	1r	2.g\	1d
.	.	4f\	.
.	1G	1d	2g/
.	.	.	2f/
1B	1G	1r	1d
=43	=43	=43	=43
0c	1e	1g	1c
.	1e	0a	1r
1c	1e	.	1A
=44-	=44	=44	=44
0G	1.d	1.g	1B
.	.	.	1B
.	2e\	4f\	.
.	.	4e\	.
1r	2f\	1d	1B
.	2g\	.	.
=45-	=45	=45	=45
!!linebreak:original
0.r	2e\	2c\	2.c/
.	1c	2A/	.
.	.	.	4d/
.	.	2.c\	2e/
.	2A/	.	2f/
.	.	4d\	.
.	2G/	[1e	1g
.	[2c\	.	.
=46	=46	=46	=46
0.r	1c]	1e]	2a/
.	.	.	2cc\
.	2d\	2f\	2b\
.	2A/	1e	1a
.	1B	.	.
.	.	2d\	2g#i/
=47-	=47	=47	=47
1r	2.A/	1.e	1a
.	4B\	.	.
1r	2c\	.	2g/
.	2d\	2d\	2f/
1c	2A/	1c	1e
.	2c\	.	.
=48-	=48	=48	=48
0d	2B\	1G	0d
.	2.G/	.	.
.	.	1B	.
.	4F/	.	.
.	2G/	.	.
1c	2A/	1A	1r
.	2F/	.	.
=49	=49	=49	=49
1B	1G	2G/	1r
.	.	1g	.
0A	1D	.	1r
.	.	2f#i\	.
.	1r	2f#i\	1cc
.	.	2e\	.
=50-	=50	=50	=50
!!linebreak:original
0G	1r	2g\	0dd
.	.	1d	.
.	1r	.	.
.	.	2B\	.
1r	1c	1A	1cc
=51-	=51	=51	=51
0.r	0d	1G	1b
.	.	0F	0a
.	1c	.	.
=52	=52	=52	=52
0.r	2.B\	2G/	1g
.	.	1c	.
.	4G/	.	.
.	2A/	.	2f/
.	1G	2B\	1e
.	.	2G/	.
.	2F/	2A/	2d/
=53-	=53	=53	=53
0.r	1E	2B\	2.g/
.	.	2c\	.
.	.	.	4a/
.	2D/	1d	1b
.	2G/	.	.
.	2A/	2c\	1a
.	[2B\	[2d\	.
=54-	=54	=54	=54
0.r	2B\]	2d\]	2g/
.	2A/	2e\	1a
.	2.d\	2.f\	.
.	.	.	2.dd\
.	4G/	4g\	.
.	2.c\	2.e\	.
.	.	.	4g/
.	.	.	2cc\
.	4B\	4d\	.
=55	=55	=55	=55
!!pagebreak:original
0.r	2G/	2e\	2b\
.	2F/	2f\	2.a/
.	1G	2d\	.
.	.	.	4g/
.	.	1d	1g
.	1A	.	.
.	.	2c\	2f#i/
=56-	=56	=56	=56
0.r	0G	2e\	0.g
.	.	2d\	.
.	.	1.B	.
.	2.E/	.	.
.	.	[2c\	.
.	4F/	.	.
=57-	=57	=57	=57
0.r	2A/	2c\]	0.r
.	1G	2B\	.
.	.	2G/	.
.	2E/	1c	.
.	1D	.	.
.	.	2B\	.
=58	=58	=58	=58
0C	1r	[0.c	0.r
.	1.G	.	.
1C	.	.	.
.	4F/	.	.
.	4G/	.	.
=59-	=59	=59	=59
0F	1.A	1c]	0.r
.	.	1.A	.
.	1F	.	.
1F	.	.	.
.	2D/	2F/	.
=60-	=60	=60	=60
!!linebreak:original
1E	2C/	1G	0.r
.	2c\	.	.
0D	2d\	1F	.
.	1B	.	.
.	.	1r	.
.	2A/	.	.
=61	=61	=61	=61
0.C	1.c	0G	1g
.	.	.	1g
.	2d\	.	.
.	2e\	1E	1g
.	[2c\	.	.
=62-	=62	=62	=62
0.r	4c\]	1F	1a
.	4d\	.	.
.	2f\	.	.
.	2g\	1c	2g/
.	2e\	.	2cc\
.	1d	1G	2dd\
.	.	.	2b\
=63-	=63	=63	=63
1r	1c	[0.g	1cc
1G	2B\	.	0dd
.	1B	.	.
1G	.	.	.
.	4A/	.	.
.	4B\	.	.
=64	=64	=64	=64
1C	0c	1g]	0ee
1r	.	0a	.
1r	1A	.	1ee
=65-	=65	=65	=65
!!linebreak:original
1G	1B	2r	1.dd
.	.	1g	.
1G	1B	.	.
.	.	4f\	2cc\
.	.	4e\	.
1G	1B	2d\	2.b\
.	.	2e\	.
.	.	.	4a/
=66-	=66	=66	=66
0.F	1c	2.f\	1a
.	.	4e\	.
.	2A/	0c	1.cc
.	2F/	.	.
.	2A/	.	.
.	2B\	.	4b\
.	.	.	4a/
=67-	=67	=67	=67
1E	1c	2r	2.g/
.	.	2G/	.
.	.	.	4a/
0D	0d	2F/	2b\
.	.	1A	1a
.	.	2B\	2f/
*rscale:1	*	*	*
=68-	=68	=68	=68
!LO:N:vis=00	!	!	!
0.Cl	0.Gl	0.cl	0.el
!!linebreak:original
!!LO:LB:i:g=z
=69||	=69||	=69||	=69||
*>B	*>B	*>B	*>B
!!section: Et resurrexit
!!!OMD: Et resurrexit
*M3/1	*M2/1	*M3/1	*M3/1
*met(C.)	*met(C.)	*met(C.)	*met(C.)
1C	1.r	1.r	1e
2C/	.	.	2e/
1F	1.r	1.r	2c/
.	.	.	1f
2F\	.	.	.
=70	=70	=70	=70
2E\	1.r	1.r	2g/
1D	.	.	2.a/
.	.	.	4g/
1.C	1.r	1c	1e
.	.	2c\	2e/
=71	=71	=71	=71
1.r	1.r	1A	2c/
.	.	.	1f
.	.	2A/	.
2r	1B	2G/	2e/
2G\	.	1g	1d
2G\	2B\	.	.
=72	=72	=72	=72
1C	2G/	1e	1c
.	1c	.	.
2r	.	2e\	1g
1.r	2B\	4d\	.
.	.	2g\	.
.	1A	.	2a/
.	.	4f#i\	.
.	.	4f#i\	2cc\
.	.	4e\	.
=73	=73	=73	=73
!!pagebreak:original
1.r	2.G/	1.g	4b\
.	.	.	4cc\
.	.	.	4dd\
.	2c\	.	2ee\
.	4d\	.	4dd\
1.r	4e\	2c\	4cc\
.	4f\	.	4a/
.	4g\	1G	4g/
.	4e\	.	2cc\
.	2d\	.	.
.	.	.	4b\
=74	=74	=74	=74
1.r	2c\	2g\	2cc\
.	1A	2a\	2r
.	.	2f\	2cc\
2r	2G/	1g	1b
2G\	2r	.	.
2G\	2B\	2e\	2b\
=75	=75	=75	=75
2G\	2G/	2d\	2.dd\
1F	2A/	2.f\	.
.	.	.	4cc\
.	2D/	.	2a/
.	.	4e\	.
2E\	2G/	2c\	2cc\
1D	1F	4B\	1dd
.	.	2B\	.
.	.	4A/	.
=76	=76	=76	=76
1.C	1G	1.c	1ee
.	1E	.	2ee\
1.r	.	2B\	2dd\
.	1F	1A	1cc
=77	=77	=77	=77
!!linebreak:original
1.r	2G/	2d\	2b\
.	2A/	2c\	2.a/
.	2B\	2d\	.
.	.	.	4g/
1.r	2c\	2e\	1g
.	1A	1c	.
.	.	.	2f#i/
=78	=78	=78	=78
2G\	1.r	1d	1g
2G\	.	.	.
2G\	.	2r	2r
1.C	1c	1e	2g/
.	.	.	2g/
.	2c\	2e\	2g/
=79	=79	=79	=79
1.r	1e	2g\	1.c
.	.	2g\	.
.	2e\	2g\	.
1.r	2g\	1c	1.r
.	2g\	.	.
.	2g\	2c\	.
=80	=80	=80	=80
1c	2c\	1A	1.r
.	1f	.	.
2c\	.	1c	.
1B	2e\	.	2g/
.	1d	1G	2g/
2B\	.	.	2g/
=81	=81	=81	=81
1c	2c\	2g\	1e
.	1A	1a	.
2c\	.	.	2e/
1.G	1B	1g	2d/
.	.	.	2.g/
.	2G/	2e\	.
.	.	.	4f/
=82	=82	=82	=82
!!linebreak:original
1.r	4A/	2c\	2e/
.	2c\	.	.
.	.	1G	1d
.	4B\	.	.
.	4B\	.	.
.	4A/	.	.
1.r	2c\	1g	2c/
.	2C/	.	2G/
.	2E/	2g\	[2c/
=83	=83	=83	=83
1.r	2F/	1f	2c/]
.	1D	.	1d
.	.	2f\	.
1c	1C	1g	1e
2c\	2r	2e\	2c/
=84	=84	=84	=84
1B	1G	2d\	2d/
.	.	1e	1g
2B\	2G/	.	.
1c	1F	2f\	2a/
.	.	1a	2.cc\
2c\	2F/	.	.
.	.	.	4a/
=85	=85	=85	=85
1G	1G	1.g	2b\
.	.	.	2.dd\
2c\	2E/	.	.
.	.	.	4cc\
1d	2D/	2.f\	2b\
.	1F	.	2a/
.	.	2a\	.
2c\	.	.	2r
.	.	4g\	.
=86	=86	=86	=86
!!linebreak:original
2B\	2G/	4e\	2.dd\
.	.	2d\	.
1A	1D	.	.
.	.	4g\	4cc\
.	.	4f#i\	2a/
.	.	4e\	.
1.G	1.d	1g	1b
.	.	2r	2b\
=87	=87	=87	=87
1.r	1G	1g	2b\
.	.	.	2.dd\
.	2F/	2a\	.
.	.	.	4cc\
1.r	2G/	4g\	2b\
.	.	4e\	.
.	4A/	4f\	4a/
.	4c\	2e\	2a/
.	2B\	.	.
.	.	4d\	4g/
=88	=88	=88	=88
1.r	2A/	4f\	2a/
.	.	2e\	.
.	2r	.	4g/
.	.	2d\	4f/
.	2A/	.	2e/
.	.	4c#i\	.
1.r	2.B-\	2d\	1d
.	.	2D/	.
.	2.A/	.	.
.	.	2F/	2c/
=89	=89	=89	=89
1.r	2.G/	2G/	2B/
.	.	1D	1A
.	2.F/	.	.
1.r	2B-i\	1.r	2G/
.	2A/	.	4A/
.	.	.	2c/
.	2G/	.	.
.	.	.	4B/
=90	=90	=90	=90
!!pagebreak:original
1.r	2C/	1.r	4c/
.	.	.	4.e/
.	2BB/	.	.
.	.	.	8d/
.	.	.	4d/
.	2E/	.	4r
.	.	.	4.g/
1.r	2D/	1.r	.
.	.	.	8f/
.	.	.	4f/
.	2G/	.	4g/
.	.	.	4.b-i\
.	2F/	.	.
.	.	.	8a/
.	.	.	4a/
=91	=91	=91	=91
1.r	2B-i\	1.r	4r
.	.	.	2dd\
.	2.A/	.	.
.	.	.	4cc\
.	.	.	4b-i\
.	4d\	.	2a/
1.r	4c\	1.r	.
.	4d\	.	4f/
.	4e\	.	4g/
.	4c\	.	4e/
.	4Bni\	.	4d/
.	4c\	.	4r
=92	=92	=92	=92
1.r	4A/	1.r	4c/
.	2G/	.	4Bni/
.	.	.	2d/
.	2d\	.	.
.	.	.	4f/
.	2G/	.	4g/
1.r	.	1.r	4b-i\
.	4D/	.	2a/
.	4G/	.	.
.	4B\	.	2g/
.	2A/	.	.
.	.	.	4f#i/
=93	=93	=93	=93
1.r	2G/	2d\	2g/
.	2G/	2d\	1r
.	2G/	2d\	.
1.r	1c	1e	2g/
.	.	.	2g/
.	2B\	2d\	2g/
=94	=94	=94	=94
!!linebreak:original
1.r	1A	2e\	1cc
.	.	2.f\	.
.	2A/	.	2cc\
.	.	4e\	.
1.r	2G/	2e\	2b\
.	1F	4f\	1a
.	.	2d\	.
.	.	8c\L	.
.	.	8d\J	.
=95	=95	=95	=95
1C	1E	2e\	1g
.	.	1c	.
2C/	2C/	.	2e/
1F	2AA/	2r	2c/
.	1BB	1B	1d
2F\	.	.	.
=96	=96	=96	=96
2E\	2C/	4G/	2c/
.	.	4c\	.
1D	1F	4d\	1r
.	.	2B\	.
.	.	4A/	.
1C	2G/	2c\	2e/
.	2G/	2r	2e/
2r	2C/	2c\	2e/
=97	=97	=97	=97
2G\	1.r	1B	1d
2G\	.	.	.
2C/	.	2c\	2c/
1.r	2G/	1d	1B
.	2G/	.	.
.	2C/	2c\	2c/
=98	=98	=98	=98
!!linebreak:original
1.r	0G	1.B	2e/
.	.	.	2.d/
.	.	.	4c/
1.r	.	2G/	2B/
.	1F#i	1D	1A
=99	=99	=99	=99
2r	2G/	2.d\	1G
2G\	2.d\	.	.
.	.	4c\	.
2G\	.	2B\	2B/
.	4c\	.	.
2G\	2B\	2G/	2e/
1F	1A	1D	1d
=100	=100	=100	=100
2E\	2G/	2E/	2c/
1D	4r	2r	2.f/
.	2A/	.	.
.	.	2F/	.
.	4B\	.	4d/
2C/	4c\	4G/	4e/
.	4e\	4A/	2g/
2BB-i/	2d\	2B-i\	.
.	.	.	4f/
2C/	2c\	2G/	4e/
.	.	.	[4c/
=101	=101	=101	=101
2F\	4A/	2F/	4c/]
.	4c\	.	4A/
4G\	4B\	4r	4G/
4C/	2G/	2E/	2c/
2D\	.	.	.
.	4F/	4D/	4B/
1.Cl	1.Gl	2.E/	1.cl
!!linebreak:original
.	.	4F/	.
.	.	2G/l	.
!!linebreak:original
!!LO:LB:i:g=z
=102||	=102||	=102||	=102||
*>C	*>C	*>C	*>C
!!section: Et unam
!!!OMD: Et unam
*M3/1	*M3/1	*M3/1	*M3/1
*met(C.)	*met(O)	*met(O)	*met(O)
!!primary-mensuration: met(O)
*rscale:1/2	*	*	*
0.r	0c	0.r	0.c
.	1c	.	.
=103-	=103	=103	=103
0C	1G	0.r	1.e
.	2c\	.	.
.	2d\	.	2f/
1C	1e	.	1g
=104	=104	=104	=104
0F	0A	[0.c	0a
1F	1A	.	1a
=105-	=105	=105	=105
1E	1r	1c]	1g
0D	1A	0d	1.f
.	1B	.	.
.	.	.	2e/
=106	=106	=106	=106
!!pagebreak:original
0C	1.c	2.e\	1e
.	.	4f\	.
.	.	2g\	1r
.	2A/	1a	.
1r	1B	.	1b
.	.	2g#i\	.
=107-	=107	=107	=107
0.r	0A	1.a	1cc
.	.	.	2cc\
.	.	4g\	2.cc\
.	.	4f\	.
.	1c	1e	.
.	.	.	4b\
.	.	.	2g/
=108	=108	=108	=108
0.r	1G	2d\	2r
.	.	1g	2e/
.	0c	.	2e/
.	.	2c\	2e/
.	.	2A/	2e/
.	.	2c\	2e/
=109-	=109	=109	=109
1G	2.B\	2G/	1.d
.	.	2.g\	.
.	4c\	.	.
1G	1d	.	.
.	.	4f\	.
.	.	2d\	2.g/
1C	1e	1c	.
.	.	.	8a/L
.	.	.	8b/J
.	.	.	2cc\
=110	=110	=110	=110
0.r	2d\	2f\	2b\
.	2c\	2e\	2.a/
.	2d\	2f\	.
.	.	.	4g/
.	2B\	1d	1g
.	1A	.	.
.	.	2c\	2f#i/
=111-	=111	=111	=111
!!linebreak:original
0.r	1.G	1d	0g
.	.	2.e\	.
.	1c	.	.
.	.	4f\	.
.	.	1g	1r
.	2d\	.	.
=112	=112	=112	=112
0.r	1e	1c	1g
.	1c	1r	1g
.	1r	1c	1e
=113-	=113	=113	=113
0.r	0.r	1.A	1c
.	.	.	0f
.	.	1B	.
.	.	4A/	.
.	.	4B\	.
=114	=114	=114	=114
0.r	0.r	2c\	1e
.	.	2A/	.
.	.	2G/	2.g/
.	.	1c	.
.	.	.	4f/
.	.	.	1d
.	.	2B\	.
=115-	=115	=115	=115
0.r	1g	0.c	1e
.	1g	.	1c
.	1e	.	1r
=116	=116	=116	=116
!!linebreak:original
0.r	1c	0.r	1.A
.	0f	.	.
.	.	.	1B
.	.	.	4A/
.	.	.	4B/
=117-	=117	=117	=117
0.r	1e	0g	1c
.	0d	.	2d/
.	.	.	1B
.	.	1g	.
.	.	.	4A/
.	.	.	4B/
=118	=118	=118	=118
1r	1c	1e	1c
1G	1r	2d\	1r
.	.	1g	.
1G	1r	.	1r
.	.	2f\	.
=119-	=119	=119	=119
1G	0.r	1e	0.r
0F	.	1.d	.
.	.	2c\	.
=120	=120	=120	=120
1E	2r	1c	1e
.	2G/	.	.
0D	2A/	0d	0f
.	1B	.	.
.	2A/	.	.
=121-	=121	=121	=121
!!linebreak:original
0.C	2c\	1e	2.g/
.	2.e\	.	.
.	.	.	4a/
.	.	0c	2g/
.	8f\L	.	.
.	8g\J	.	.
.	2a\	.	2.cc\
.	1g	.	.
.	.	.	4dd\
.	.	.	[2ee\
=122	=122	=122	=122
1G	2.e\	0B	2ee\]
.	.	.	2.dd\
.	4f\	.	.
1G	2g\	.	.
.	.	.	4cc\
.	2e\	.	4b\
.	.	.	4a/
1G	1d	1G	2.b\
.	.	.	4a/
=123-	=123	=123	=123
0C	0c	1.g	1cc
.	.	.	1r
.	.	4f\	.
.	.	4e\	.
1r	1B	1d	1g
=124	=124	=124	=124
0c	1A	1e	1a
.	0F	0f	0a
1c	.	.	.
=125-	=125	=125	=125
0B	1G	1d	1.g
.	1G	1d	.
.	.	.	4f/
.	.	.	4e/
1B	1G	1g	1d
=126	=126	=126	=126
!!pagebreak:original
0c	2E/	2g\	2e/
.	2.F/	1a	2c/
.	.	.	1f
.	4G/	.	.
.	2A/	2a\	.
1c	2B\	2g\	2g/
.	2c\	[2e\	2a/
=127-	=127	=127	=127
0G	2.C/	2e\]	2g/
.	.	1c	1e
.	4D/	.	.
.	2.E/	.	.
.	.	2G/	2c/
.	4F/	.	.
1r	1D	2A/	2d/
.	.	2B\	2f/
=128	=128	=128	=128
0c	2r	1c	1e
.	1A	.	.
.	.	1a	2.f/
.	1F	.	.
.	.	.	4g/
1c	.	1f	1a
.	2A/	.	.
=129-	=129	=129	=129
0B	2G/	2e\	1r
.	1E	1g	.
.	.	.	1r
.	2F/	2f\	.
1B	1G	2d\	1g
.	.	2e\	.
=130	=130	=130	=130
0c	2.F/	1f	1a
.	4E/	.	.
.	0C	1e	2g/
.	.	.	2e/
1c	.	1r	4f/
.	.	.	4e/
.	.	.	4d/
.	.	.	4c/
=131-	=131	=131	=131
!!linebreak:original
0G	1E	2.e\	1B
.	.	4d\	.
.	1E	1B	2.e/
.	.	.	4f/
1c	1E	2r	1g
.	.	2G/	.
=132	=132	=132	=132
0d	1.D	2B\	1.f
.	.	1d	.
.	2E/	2B\	2g/
1c	1F	1A	1a
=133-	=133	=133	=133
1B	1G	2G/	1b
.	.	2d\	.
0A	1r	2c\	1.cc
.	.	1e	.
.	1c	.	.
.	.	2f\	2a/
=134	=134	=134	=134
2G\	1.d	2g\	2b\
2D\	.	2f\	2a/
1G	.	2d\	2r
.	2B\	2.g\	2dd\
1A	1c	.	2cc\
.	.	4e\	.
.	.	2f\	2a/
=135-	=135	=135	=135
1G	2d\	1g	1b
.	2B\	.	.
1r	1c	2r	2g/
.	.	2e\	2.a/
1r	1d	2f\	.
.	.	.	4g/
.	.	[2d\	2f/
=136	=136	=136	=136
!!linebreak:original
1r	1A	2d\]	1e
.	.	2c\	.
1G	1B-	2B-i\	0d
.	.	2G/	.
1D	2A/	1A	.
.	2F/	.	.
=137-	=137	=137	=137
2E\	2G/	1G	1r
1G	2.B-i\	.	.
.	.	1r	1d
.	8A/L	.	.
.	8B-i/J	.	.
2F\	2A/	.	.
1G	2G/	1d	1g
.	2Bni\	.	.
=138	=138	=138	=138
1C	2c\	1c	2a/
.	2e\	.	2cc\
1G	2.d\	2d\	1b
.	.	2e\	.
.	4B\	.	.
2A\	2c\	2f\	2a/
2G\	2d\	[2g\	2b\
=139-	=139	=139	=139
1c	2e\	2g\]	2g/
.	4c\	2e\	2.cc\
.	2e\	.	.
1d	.	2d\	.
.	4g\	.	4a/
.	4f\	2f\	2b\
.	4e\	.	.
1c	2.g\	2e\	1cc
.	.	[2g\	.
.	4f\	.	.
=140	=140	=140	=140
2B\	2d\	2g\]	2dd\
2A\	2c\	1a	1ee
1c	1e	.	.
.	.	1g	2cc\
2B\	1d	.	1dd
!LO:N:vis=2	!	!	!
[y2G\	.	2g\	.
=141-	=141	=141	=141
!!linebreak:original
2G\]yy	1r	2G/	2b\
2F\	.	2.A/	2.cc\
1E	1c	.	.
.	.	4F/	4b\
.	.	2G/	4a/
.	.	.	4g/
1D	1d	2.A/	1f
.	.	4B\	.
=142	=142	=142	=142
1C	1e	1c	2g/
.	.	.	1a
1D	2f\	1A	.
.	1d	.	2f/
2BB/	.	2B\	2.g/
2C/	2e\	2G/	.
.	.	.	4e/
=143-	=143	=143	=143
2D\	1d	2r	4f/
.	.	.	4g/
1F	.	2.A/	4a/
.	.	.	4b\
.	2c\	.	2cc\
.	.	4F/	.
2D\	2B-\	2f\	2dd\
2E-\	2c\	2g\	2g/
2C/	2e-\	2e\	2a/
=144	=144	=144	=144
2.BB-i/	2.d\	2.f\	2.b-\
4C/	4c\	4e\	2a/
2D\	2B-i\	2d\	.
.	.	.	4g/
2E-i\	2G/	2c\	1g
1D	1A	1d	.
.	.	.	2f#i/
=145-	=145	=145	=145
!LO:N:vis=00	!	!	!
0.GGl	0.Gl	0.dl	0.gl
*rscale:1	*	*	*
==	==	==	==
*-	*-	*-	*-
!!!RDF**kern: l=long note in original notation
!!!RDF**kern: i=editorial accidental
!!!RDF**kern: V=start of tuplet marker
!!!RDF**kern: Z=end of tuplet marker
!!!ENC:	Jesse Rodin; Victoria Chang 2012/03/27
!!!END:	2012/03/27/
!!!EED:	Jesse Rodin
!!!EEV:	2012/03/30/
!!!ONB:	Translated from MusicXML and edited on 2012/03/30/ by Craig Sapp
!!muse2ps: T^@{OPR}^u^@{ONM}{. }@{OTL}^C^@{COM}^i2I150v85,85,85,150Q16
